packages/foundations/assets/icons/functional/images/logos/s_bahn_28_inverted.svg

<svg width="28" height="28" viewBox="0 0 28 28" fill="none" xmlns="http://www.w3.org/2000/svg">
<g clip-path="url(#clip0_2213_4654)">
<path fill-rule="evenodd" clip-rule="evenodd" d="M19.5273 10.5088C18.0836 8.89875 15.911 7.483 13.3621 7.483C11.9201 7.483 11.0958 8.27838 11.0958 9.20938C11.0958 13.1268 20.5196 10.3731 20.5196 16.8114C20.5196 19.411 18.0836 22.4376 13.9816 22.4376C11.6952 22.4376 9.05272 21.3701 7.6116 20.0314V16.6565C8.97835 18.6935 11.4703 20.2641 13.9816 20.2641C15.5181 20.2641 16.7536 19.3541 16.7536 18.3829C16.7536 14.7175 7.48035 16.9873 7.48035 10.6636C7.48035 7.34738 10.6085 5.56238 13.419 5.56238C15.7613 5.56238 17.8596 6.35863 19.5265 7.69738L19.5273 10.5088Z" fill="#1A1C1F"/>
</g>
<defs>
<clipPath id="clip0_2213_4654">
<rect width="28" height="28" fill="white"/>
</clipPath>
</defs>
</svg>

<svg xmlns="http://www.w3.org/2000/svg" width="28" height="28" fill="none"><g clip-path="url(#a)"><path fill="#1A1C1F" fill-rule="evenodd" d="M19.527 10.509c-1.443-1.61-3.616-3.026-6.165-3.026-1.442 0-2.266.795-2.266 1.726 0 3.918 9.424 1.164 9.424 7.602 0 2.6-2.436 5.627-6.538 5.627-2.287 0-4.93-1.068-6.37-2.407v-3.374c1.366 2.037 3.858 3.607 6.37 3.607 1.536 0 2.772-.91 2.772-1.881 0-3.665-9.274-1.396-9.274-7.72 0-3.316 3.128-5.1 5.939-5.1a9.66 9.66 0 0 1 6.107 2.134z" clip-rule="evenodd"/></g><defs><clipPath id="a"><path fill="#fff" d="M0 0h28v28H0z"/></clipPath></defs></svg>
